X: 219
T: All The Good Times
B: canberra pickers and fiddlers
B: songs
B: traditional songs
B: tunes
M:3/4
L:1/4
Q: 1/4=180
K:G
V:1 
 "G"B3/2 A/2 B| "G7"G2 A| "C"G- F E| "G"D3|
 "G"B3/2 A/2 B| G2 E| "D7"F- A2-| A2 z|
 "G"B3/2 A/2 B|\ "G7"G2 G| "C"G- F E| "G"D2 D/2D/2|
 "C"D G G/2G/2| "D7"F- G A| "G"G3-| G2 z|
W: I wish to the Lord I’d never been born
W: Or died when I was young
W: I never would a’ seen your sparklin’ blue eyes
W: Or heard your lying tongue
W: 
W: All the good times are past and gone
W: All the good times are o’er
W: All the good times are past and gone
W: Little darlin’ don’t you weep no more.
W: 
W: Now don’t you see that turtle dove
W: Flyin from pine to pine
W: It’s mournin’ for It’s own true love
W: Just like I mourn for mine.
W: 
W: Come back, come back my own true love
W: And stay a while with me
W: For if ever I’ve had a friend in this world
W: You’ve been a friend to me
% abcbook-tune_id 63ae8f1c6f964548c581da13
% abcbook-tune_composer_id 
% abcbook-link-0 https://www.youtube.com/watch?v=43zqJnNdNWQ
% abcbook-boost 0
% abcbook-difficulty 1
% abcbook-tags canberra pickers and fiddlers,old time tunes,steve ryan,steve set,test,© free
% abcbook-tablature 
% abcbook-transpose 
% abcbook-tuning GDAE
% abcbook-lastupdated 1729723836801
% abcbook-src-url https://tunebook.net/scrape/traditional%20songs.abc
% abcbook-soundfonts 
% abcbook-repeats 1


